X: 13071
T: The Lass of Livingston
%R: march, reel
B: James Oswald "The Caledonian Pocket Companion" v.1 b.3 p.7 #1 (top 4 staffs continued from p.6)
S: https://ia800501.us.archive.org/18/items/caledonianpocket01rugg/caledonianpocket01rugg_bw.pdf
Z: 2020 John Chambers <jc:trillian.mit.edu>
N: A few strains' pickup notes were 16th-notes; changed to 8th-notes to make the transitions work right.
M: C
L: 1/8
K: G
%%slurgraces 1
%%graceslurs 1
"_Moderately Quick"(DE) |\
G3A B2e2 | (dB)(de) (dB)(AG) | TB2A2 A2(GA) | B2A2 (BA)(GE) |\
(DE)(GA) B3g | (dB)(AG) (AB)(cd) | e2E2 E2(DE) |
G2E2 E2 :: (de) |\
g3a (ga)(ba) | gdeg (dB)(AG) | B2AB A2GA | TB2A2 A2(ga) |\
(bg)(ab) (gd)(eg) | (dA)(BG) (AB)(gf) |
e2(EF) E2(DE) | G2(EF) E2 :: (DE) |\
G3A B2(ge) | dBge dBAG | TB2A2 ABGA | (B<g) (dB) TA2(GE) |\
(DE)(GA) (BA)(Bd) |
(eg)(ed) (BA)(Bd) | e2(EF) E2(DE) |\
GB/A/ (G/A/G/F/) E2 :: (de) |\
gfga {ga}b3a | (gd)(eg) (d<B) TA>G |
{ga}b2a2 abga | {ga}b2a2 a2(ga) |\
b>a (g/a/b) g>e (d/e/g) | d(c/B/) (c/B/)(A/G/) (AB)(gf) | e2(EF) E2(DE) | G2(EF) E2 :|


